!!!OTL: ES WAR EIN ARME MUTTER
!!!ARE: Europa, Mitteleuropa, Deutschland, Westfalen
!!!SCT: E0209A
!!!YEM: Copyright 1995, estate of Helmut Schaffrath.
**kern
*ICvox
*Ivox
*M6/8
*k[f#]
*e:
{8dn
=1
4gn
8dn
4gn
8a
=2
8b
8b
4.r}
{8b
=3
4ddn
8b
4b
8a
=4
4.b
4r}
{8b
=5
4ddn
8b
4b
8a
=6
8b
8gn
4.r}
{8a
=7
4b
8f#
4gn
8f#
=8
4e
4.r}
==
!!!AGN: erzaehlendes Volks - Lied, Mahn -, Moral - Lied, Strafe; Geiz
!!!ONB: ESAC (Essen Associative Code) Database: ERK1
!!!AMT: compound duple
!!!AIN: vox
!!!EED: Helmut Schaffrath
!!!EEV: 1.0
*-
